N0010 (Filename: 0.ngc)
N0020 (Post processor: Xmotion.scpost)
N0030 (Date: 06/03/2019)
N0040 G20 (Units: Inches)
N0050 G40 G90
N0060 G64 P0.001 
N0070 F1 S1
N0080 (Part: Control Panel IO Other Box)
N0090 (Operation: Outside Offset, 0, T2: Plasma, 0.038 in kerf)
N0100 G00 Z1.1250
N0110 X6.9748 Y3.6551
N0120 Z0.6900
N0130 o<touchoff> call [0.1900]  [1.2]  [0.1750] 
N0140 F3.937
N0150 G01 Z0.1750
N0160 G02 X6.9571 Y3.5663 I-0.0532 J-0.0356 F70.0
N0170 X6.9571 Y3.5663 I0.0000 J0.0622
N0180 X6.9395 Y3.6551 I0.0356 J0.0532
N0190 M05
N0200 G04 P1
N0210 G00 Z1.1250
N0220 X6.5646 Y3.9995
N0230 Z0.6900
N0240 o<touchoff> call [0.1900]  [1.2]  [0.1750] 
N0250 F3.937
N0260 G01 Z0.1750
N0270 G02 X6.6446 Y4.0795 I0.0800 J0.0000 F70.0
N0280 X6.7281 Y3.9960 I0.0000 J-0.0835
N0290 G01 Y1.6960 F70
N0300 G02 X6.6446 Y1.6125 I-0.0835 J0.0000 F70.0
N0310 G01 X1.1446 F70
N0320 G02 X1.0611 Y1.6960 I0.0000 J0.0835 F70.0
N0330 G01 Y3.9960 F70
N0340 G02 X1.1446 Y4.0795 I0.0835 J0.0000 F70.0
N0350 G01 X6.6446 F70
N0360 G02 X6.6879 Y3.9750 I-0.0306 J-0.0739 F70.0
N0370 M05
N0380 G04 P1
N0390 G00 Z1.1250
N0400 X6.8441 Y5.4281
N0410 Z0.6900
N0420 o<touchoff> call [0.1900]  [1.2]  [0.1750] 
N0430 F3.937
N0440 G01 Z0.1750
N0450 G02 X6.7812 Y5.3340 I-0.0785 J-0.0156 F70.0
N0460 X6.7812 Y5.3340 I0.0000 J0.1110
N0470 X6.7184 Y5.4281 I0.0156 J0.0785
N0480 M05
N0490 G04 P1
N0500 G00 Z1.1250
N0510 X8.8873 Y3.8146
N0520 Z0.6900
N0530 o<touchoff> call [0.1900]  [1.2]  [0.1750] 
N0540 F3.937
N0550 G01 Z0.1750
N0560 G02 X8.8073 Y3.7346 I-0.0800 J0.0000 F70.0
N0570 X8.8073 Y3.7346 I0.0000 J0.2935
N0580 X8.7273 Y3.8146 I0.0000 J0.0800
N0590 M05
N0600 G04 P1
N0610 G00 Z1.1250
N0620 X8.8873 Y1.7036
N0630 Z0.6900
N0640 o<touchoff> call [0.1900]  [1.2]  [0.1750] 
N0650 F3.937
N0660 G01 Z0.1750
N0670 G02 X8.8073 Y1.6236 I-0.0800 J0.0000 F70.0
N0680 X8.8073 Y1.6236 I0.0000 J0.2935
N0690 X8.7273 Y1.7036 I0.0000 J0.0800
N0700 M05
N0710 G04 P1
N0720 G00 Z1.1250
N0730 X6.9748 Y2.0901
N0740 Z0.6900
N0750 o<touchoff> call [0.1900]  [1.2]  [0.1750] 
N0760 F3.937
N0770 G01 Z0.1750
N0780 G02 X6.9571 Y2.0013 I-0.0532 J-0.0356 F70.0
N0790 X6.9571 Y2.0013 I0.0000 J0.0623
N0800 X6.9395 Y2.0901 I0.0356 J0.0532
N0810 M05
N0820 G04 P1
N0830 G00 Z1.1250
N0840 X6.8441 Y0.3081
N0850 Z0.6900
N0860 o<touchoff> call [0.1900]  [1.2]  [0.1750] 
N0870 F3.937
N0880 G01 Z0.1750
N0890 G02 X6.7812 Y0.2140 I-0.0785 J-0.0156 F70.0
N0900 X6.7812 Y0.2140 I-0.0000 J0.1110
N0910 X6.7184 Y0.3081 I0.0156 J0.0785
N0920 M05
N0930 G04 P1
N0940 G00 Z1.1250
N0950 X2.5004
N0960 Z0.6900
N0970 o<touchoff> call [0.1900]  [1.2]  [0.1750] 
N0980 F3.937
N0990 G01 Z0.1750
N1000 G02 X2.4375 Y0.2140 I-0.0785 J-0.0156 F70.0
N1010 X2.4375 Y0.2140 I0.0000 J0.1110
N1020 X2.3746 Y0.3081 I0.0156 J0.0785
N1030 M05
N1040 G04 P1
N1050 G00 Z1.1250
N1060 X0.8498 Y2.0901
N1070 Z0.6900
N1080 o<touchoff> call [0.1900]  [1.2]  [0.1750] 
N1090 F3.937
N1100 G01 Z0.1750
N1110 G02 X0.8321 Y2.0013 I-0.0532 J-0.0356 F70.0
N1120 X0.8321 Y2.0013 I0.0000 J0.0623
N1130 X0.8145 Y2.0901 I0.0356 J0.0532
N1140 M05
N1150 G04 P1
N1160 G00 Z1.1250
N1170 X0.3879 Y2.8681
N1180 Z0.6900
N1190 o<touchoff> call [0.1900]  [1.2]  [0.1750] 
N1200 F3.937
N1210 G01 Z0.1750
N1220 G02 X0.3250 Y2.7740 I-0.0785 J-0.0156 F70.0
N1230 X0.3250 Y2.7740 I0.0000 J0.1110
N1240 X0.2621 Y2.8681 I0.0156 J0.0785
N1250 M05
N1260 G04 P1
N1270 G00 Z1.1250
N1280 X0.8498 Y3.6551
N1290 Z0.6900
N1300 o<touchoff> call [0.1900]  [1.2]  [0.1750] 
N1310 F3.937
N1320 G01 Z0.1750
N1330 G02 X0.8321 Y3.5663 I-0.0532 J-0.0356 F70.0
N1340 X0.8321 Y3.5663 I0.0000 J0.0623
N1350 X0.8145 Y3.6551 I0.0356 J0.0532
N1360 M05
N1370 G04 P1
N1380 G00 Z1.1250
N1390 X2.5004 Y5.4281
N1400 Z0.6900
N1410 o<touchoff> call [0.1900]  [1.2]  [0.1750] 
N1420 F3.937
N1430 G01 Z0.1750
N1440 G02 X2.4375 Y5.3340 I-0.0785 J-0.0156 F70.0
N1450 X2.4375 Y5.3340 I0.0000 J0.1110
N1460 X2.3746 Y5.4281 I0.0156 J0.0785
N1470 M05
N1480 G04 P1
N1490 G00 Z1.1250
N1500 X11.1879
N1510 Z0.6900
N1520 o<touchoff> call [0.1900]  [1.2]  [0.1750] 
N1530 F3.937
N1540 G01 Z0.1750
N1550 G02 X11.1250 Y5.3340 I-0.0785 J-0.0156 F70.0
N1560 X11.1250 Y5.3340 I0.0000 J0.1110
N1570 X11.0621 Y5.4281 I0.0156 J0.0785
N1580 M05
N1590 G04 P1
N1600 G00 Z1.1250
N1610 X11.7132 Y3.7466
N1620 Z0.6900
N1630 o<touchoff> call [0.1900]  [1.2]  [0.1750] 
N1640 F3.937
N1650 G01 Z0.1750
N1660 G02 X11.6955 Y3.6579 I-0.0532 J-0.0356 F70.0
N1670 X11.6955 Y3.6579 I0.0000 J0.0622
N1680 X11.6779 Y3.7466 I0.0356 J0.0532
N1690 M05
N1700 G04 P1
N1710 G00 Z1.1250
N1720 X12.5405 Y3.4426
N1730 Z0.6900
N1740 o<touchoff> call [0.1900]  [1.2]  [0.1750] 
N1750 F3.937
N1760 G01 Z0.1750
N1770 G02 X12.6205 Y3.5226 I0.0800 J0.0000 F70.0
N1780 X12.6715 Y3.4716 I0.0000 J-0.0510
N1790 G01 Y2.3916 F70
N1800 G02 X12.6205 Y2.3406 I-0.0510 J0.0000 F70.0
N1810 G01 X10.7705 F70
N1820 G02 X10.7195 Y2.3916 I0.0000 J0.0510 F70.0
N1830 G01 Y3.4716 F70
N1840 G02 X10.7705 Y3.5226 I0.0510 J0.0000 F70.0
N1850 G01 X12.6205 F70
N1860 G02 X12.6426 Y3.4116 I-0.0444 J-0.0665 F70.0
N1870 M05
N1880 G04 P1
N1890 G00 Z1.1250
N1900 X13.3004 Y2.8681
N1910 Z0.6900
N1920 o<touchoff> call [0.1900]  [1.2]  [0.1750] 
N1930 F3.937
N1940 G01 Z0.1750
N1950 G02 X13.2375 Y2.7740 I-0.0785 J-0.0156 F70.0
N1960 X13.2375 Y2.7740 I0.0000 J0.1110
N1970 X13.1746 Y2.8681 I0.0156 J0.0785
N1980 M05
N1990 G04 P1
N2000 G00 Z1.1250
N2010 X11.7132 Y2.1696
N2020 Z0.6900
N2030 o<touchoff> call [0.1900]  [1.2]  [0.1750] 
N2040 F3.937
N2050 G01 Z0.1750
N2060 G02 X11.6955 Y2.0809 I-0.0532 J-0.0356 F70.0
N2070 X11.6955 Y2.0809 I0.0000 J0.0623
N2080 X11.6779 Y2.1696 I0.0356 J0.0532
N2090 M05
N2100 G04 P1
N2110 G00 Z1.1250
N2120 X11.1879 Y0.3081
N2130 Z0.6900
N2140 o<touchoff> call [0.1900]  [1.2]  [0.1750] 
N2150 F3.937
N2160 G01 Z0.1750
N2170 G02 X11.1250 Y0.2140 I-0.0785 J-0.0156 F70.0
N2180 X11.1250 Y0.2140 I0.0000 J0.1110
N2190 X11.0621 Y0.3081 I0.0156 J0.0785
N2200 M05
N2210 G04 P1
N2220 G00 Z1.1250
N2230 X11.9825 Y-0.0990
N2240 Z0.6900
N2250 o<touchoff> call [0.1900]  [1.2]  [0.1750] 
N2260 F3.937
N2270 G01 Z0.1750
N2280 G02 X12.0625 Y-0.0190 I0.0800 J0.0000 F70.0
N2290 G03 X13.5815 Y1.5000 I0.0000 J1.5190
N2300 G01 Y4.2700 F70
N2310 G03 X12.0625 Y5.7890 I-1.5190 J0.0000 F70.0
N2320 G01 X1.5000 F70
N2330 G03 X-0.0190 Y4.2700 I0.0000 J-1.5190 F70.0
N2340 G01 Y1.5000 F70
N2350 G03 X1.5000 Y-0.0190 I1.5190 J0.0000 F70.0
N2360 G01 X12.0625 F70
N2370 G02 X12.1425 Y-0.0990 I0.0000 J-0.0800 F70.0
N2380 M05
N2390 G04 P1
N2400 G00 Z1.1250
N2410 M05 M30
