N0010 (Filename: 0.ngc)
N0020 (Post processor: Xmotion.scpost)
N0030 (Date: 15/04/2019)
N0040 G20 (Units: Inches)
N0050 G40 G90
N0060 G64 P0.001 
N0070 F1 S1
N0080 (Part: 2 [5])
N0090 (Operation: Outside Offset, 0, T1: Plasma, 0.057 in kerf)
N0100 G00 Z1.1250
N0110 X4.1916 Y0.9258
N0120 Z0.6500
N0130 o<touchoff> call [0.1500]  [0.4]  [0.0600] 
N0140 F30
N0150 G01 Z0.0600
N0160 G03 X4.2544 Y0.8317 I0.0785 J-0.0156 F85.0
N0170 X4.2544 Y0.8317 I0.0000 J0.1465
N0180 X4.3173 Y0.9258 I-0.0156 J0.0785
N0190 M05
N0200 G04 P2
N0210 G00 Z1.1250
N0220 X6.1527
N0230 Z0.6500
N0240 o<touchoff> call [0.1500]  [0.4]  [0.0600] 
N0250 F30
N0260 G01 Z0.0600
N0270 G03 X6.2155 Y0.8317 I0.0785 J-0.0156 F85.0
N0280 X6.2155 Y0.8317 I0.0000 J0.1465
N0290 X6.2784 Y0.9258 I-0.0156 J0.0785
N0300 M05
N0310 G04 P2
N0320 G00 Z1.1250
N0330 X7.9978 Y2.1499
N0340 Z0.6500
N0350 o<touchoff> call [0.1500]  [0.4]  [0.0600] 
N0360 F30
N0370 G01 Z0.0600
N0380 G03 X8.0606 Y2.0559 I0.0785 J-0.0156 F85.0
N0390 X8.0606 Y2.0559 I0.0000 J0.1465
N0400 X8.1235 Y2.1499 I-0.0156 J0.0785
N0410 M05
N0420 G04 P2
N0430 G00 Z1.1250
N0440 X10.0321 Y2.2764
N0450 Z0.6500
N0460 o<touchoff> call [0.1500]  [0.4]  [0.0600] 
N0470 F30
N0480 G01 Z0.0600
N0490 G03 X10.0949 Y2.1824 I0.0785 J-0.0156 F85.0
N0500 X10.0949 Y2.1824 I0.0000 J0.1140
N0510 X10.1578 Y2.2764 I-0.0156 J0.0785
N0520 M05
N0530 G04 P2
N0540 G00 Z1.1250
N0550 X2.3465 Y2.1499
N0560 Z0.6500
N0570 o<touchoff> call [0.1500]  [0.4]  [0.0600] 
N0580 F30
N0590 G01 Z0.0600
N0600 G03 X2.4094 Y2.0558 I0.0785 J-0.0156 F85.0
N0610 X2.4094 Y2.0558 I-0.0000 J0.1465
N0620 X2.4722 Y2.1499 I-0.0156 J0.0785
N0630 M05
N0640 G04 P2
N0650 G00 Z1.1250
N0660 X0.3121 Y2.2764
N0670 Z0.6500
N0680 o<touchoff> call [0.1500]  [0.4]  [0.0600] 
N0690 F30
N0700 G01 Z0.0600
N0710 G03 X0.3750 Y2.1824 I0.0785 J-0.0156 F85.0
N0720 X0.3750 Y2.1824 I0.0000 J0.1140
N0730 X0.4379 Y2.2764 I-0.0156 J0.0785
N0740 M05
N0750 G04 P2
N0760 G00 Z1.1250
N0770 X10.0149 Y2.8109
N0780 Z0.6500
N0790 o<touchoff> call [0.1500]  [0.4]  [0.0600] 
N0800 F30
N0810 G01 Z0.0600
N0820 G03 X10.0949 Y2.7309 I0.0800 J0.0000 F85.0
N0830 G02 X10.4984 Y2.3274 I0.0000 J-0.4035
N0840 G01 Y2.2654 F85
N0850 G02 X10.0949 Y1.8619 I-0.4035 J0.0000 F85.0
N0860 G01 X8.9609 F85
N0870 G03 X8.1749 Y1.4614 I0.0000 J-0.9715 F85.0
N0880 G01 X7.2134 Y0.1378 F85
N0890 G02 X6.8870 Y-0.0285 I-0.3264 J0.2372 F85.0
N0900 G01 X3.5830 F85
N0910 G02 X3.2565 Y0.1378 I0.0000 J0.4035 F85.0
N0920 G01 X2.2950 Y1.4614 F85
N0930 G03 X1.5090 Y1.8619 I-0.7860 J-0.5710 F85.0
N0940 G01 X0.3750 F85
N0950 G02 X-0.0285 Y2.2654 I0.0000 J0.4035 F85.0
N0960 G01 Y2.3274 F85
N0970 G02 X0.3750 Y2.7309 I0.4035 J0.0000 F85.0
N0980 G01 X2.4093 F85
N0990 G02 X2.8223 Y2.5321 I-0.0000 J-0.5286 F85.0
N1000 G03 X3.1773 Y2.1568 I2.4126 J1.9266
N1010 X7.6476 Y2.5321 I2.0576 J2.3019
N1020 G02 X8.0606 Y2.7309 I0.4130 J-0.3298
N1030 G01 X10.0949 F85
N1040 G03 X10.1749 Y2.8109 I0.0000 J0.0800 F85.0
N1050 M05
N1060 G04 P2
N1070 G00 Z1.1250
N1080 M05 M30
